_site/images/homepage/logos/azure2.svg

<svg fill="none" height="83" viewBox="0 0 113 83" width="113" xmlns="http://www.w3.org/2000/svg"><path clip-rule="evenodd" d="m41.9883 31.2468 16.5482-14.3391-17.937 39.6658h-12.7323zm11.6873 8.9058 7.0623-19.8901 23.2632 41.4005h-43.0544l26.2702-4.5103z" fill="#0072c6" fill-rule="evenodd"/></svg>

<svg width="113" height="83" viewBox="0 0 113 83" fill="none" xmlns="http://www.w3.org/2000/svg">
<path fill-rule="evenodd" clip-rule="evenodd" d="M41.9883 31.2468L58.5365 16.9077L40.5995 56.5735H27.8672L41.9883 31.2468ZM53.6756 40.1526L60.7379 20.2625L84.0011 61.663H40.9467L67.2169 57.1527L53.6756 40.1526Z" fill="#0072C6"/>
</svg>
